src/scalable/apps/Binance.svg

<?xml version="1.0" encoding="UTF-8" standalone="no"?>
<svg
   xmlns:dc="http://purl.org/dc/elements/1.1/"
   xmlns:cc="http://creativecommons.org/ns#"
   xmlns:rdf="http://www.w3.org/1999/02/22-rdf-syntax-ns#"
   xmlns:svg="http://www.w3.org/2000/svg"
   xmlns="http://www.w3.org/2000/svg"
   xmlns:sodipodi="http://sodipodi.sourceforge.net/DTD/sodipodi-0.dtd"
   xmlns:inkscape="http://www.inkscape.org/namespaces/inkscape"
   width="64"
   height="64"
   version="1.1"
   viewBox="0 0 64 64"
   id="svg8"
   sodipodi:docname="binance.svg"
   inkscape:version="0.92.5 (2060ec1f9f, 2020-04-08)">
  <defs
     id="defs12" />
  <sodipodi:namedview
     pagecolor="#ffffff"
     bordercolor="#666666"
     borderopacity="1"
     objecttolerance="10"
     gridtolerance="10"
     guidetolerance="10"
     inkscape:pageopacity="0"
     inkscape:pageshadow="2"
     inkscape:window-width="1440"
     inkscape:window-height="876"
     id="namedview10"
     showgrid="false"
     inkscape:zoom="3.6875"
     inkscape:cx="117.44423"
     inkscape:cy="9.6024849"
     inkscape:window-x="0"
     inkscape:window-y="24"
     inkscape:window-maximized="1"
     inkscape:current-layer="svg8" />
  <metadata
     id="metadata2">
    <rdf:RDF>
      <cc:Work
         rdf:about="">
        <dc:format>image/svg+xml</dc:format>
        <dc:type
           rdf:resource="http://purl.org/dc/dcmitype/StillImage" />
        <dc:title />
      </cc:Work>
    </rdf:RDF>
  </metadata>
  <rect
     x="5"
     y="5"
     width="54"
     height="54"
     rx="27"
     ry="27"
     fill="#fdcf71"
     id="rect4" />
  <path
     d="M 23.795127,32 20.429024,35.389479 17.039546,32 20.429024,28.610521 Z M 32,23.795127 l 5.797176,5.797175 3.389477,-3.389478 -5.797175,-5.7738 -3.389479,-3.389478 -3.389477,3.389478 -5.7738,5.7738 3.389478,3.389478 z M 43.570976,28.610521 40.204875,32 43.594352,35.389479 46.960453,32 Z M 32,40.204872 26.202825,34.407699 22.836722,37.797176 28.633898,43.594352 32,46.960453 35.389479,43.570976 41.186654,37.7738 37.797176,34.407699 Z M 32,35.389479 35.389479,32 32,28.610521 28.610523,32 Z"
     id="path4"
     inkscape:connector-curvature="0"
     style="fill:#814b13;fill-opacity:1;stroke-width:0.45834726" />
</svg>

<svg xmlns="http://www.w3.org/2000/svg" width="64" height="64"><rect x="5" y="5" width="54" height="54" rx="27" ry="27" fill="#fdcf71"/><path d="m23.795 32-3.366 3.39-3.39-3.39 3.39-3.39ZM32 23.795l5.797 5.797 3.39-3.39-5.798-5.773L32 17.039l-3.39 3.39-5.773 5.774 3.39 3.39zm11.571 4.816L40.205 32l3.39 3.39L46.96 32ZM32 40.205l-5.797-5.797-3.366 3.39 5.797 5.796L32 46.96l3.39-3.389 5.797-5.797-3.39-3.366Zm0-4.816L35.39 32 32 28.61 28.61 32Z" style="fill:#814b13;fill-opacity:1;stroke-width:.45834726"/></svg>
